assets/img/playbutton.svg

<svg viewBox="0 0 100 111" fill="none" xmlns="http://www.w3.org/2000/svg">
<path d="M84.655 55.065L12.4423 13.8501V96.2798L84.655 55.065ZM94.5093 46.5455C96.0346 47.4045 97.3023 48.6448 98.1839 50.1411C99.0656 51.637 99.5297 53.3357 99.5297 55.065C99.5297 56.7942 99.0656 58.4929 98.1839 59.9888C97.3023 61.4851 96.0346 62.7254 94.5093 63.5844L15.3412 108.778C8.8711 112.474 0 108.251 0 100.258V9.87181C0 1.87867 8.8711 -2.34414 15.3412 1.3523L94.5093 46.5455Z" fill="white"/>
</svg>

<svg viewBox="0 0 100 111" fill="none" xmlns="http://www.w3.org/2000/svg"><path d="M84.655 55.065 12.442 13.85v82.43l72.213-41.215Zm9.854-8.52a9.897 9.897 0 0 1 3.675 3.596 9.694 9.694 0 0 1 1.346 4.924c0 1.73-.464 3.428-1.346 4.924a9.897 9.897 0 0 1-3.675 3.595l-79.168 45.194C8.871 112.474 0 108.251 0 100.258V9.872c0-7.993 8.871-12.216 15.341-8.52L94.51 46.546Z" fill="#fff"/></svg>
